X:1
T:Title
%%score [ ( 1 2 ) ( 3 4 ) ]
L:1/8
Q:1/4=240
M:4/4
K:Eb
V:1 treble nm="Midi_74"
V:2 treble 
V:3 bass nm="Midi_74"
V:4 bass 
V:1
"^Psalm 49" G8 | B4 G4 | E8 || B8 | c4 e4 | d4 c4 | =B8 || c8 | e4 c4 | A8 || G8 | B4 A4 | F4 F4 | %13
"^Kellow J. Pye" E8 |] %14
V:2
 E8 | F4 D4 | C8 || F8 | G4 G4 | A4 F4 | G8 || E8 | E4 G4 | F8 || E8 | E4 E4 | E4 D4 | E8 |] %14
V:3
 B,8 | F,4 G,4 | G,8 || B,8 | G,4 C4 | A,4 C4 | D8 || C8 | B,4 C4 | C8 || C8 | B,4 C4 | B,4 B,4 | %13
 G,8 |] %14
V:4
 E,8 | D,4 B,,4 | C,8 || D,8 | E,4 C,4 | F,4 A,4 | G,8 || A,8 | G,4 E,4 | F,8 || C,8 | G,,4 A,,4 | %12
 B,,4 B,,4 | E,8 |] %14

